X: 1
T:Bourr\'ee
M:2/4
L:1/8
O:France
R:Bourr\'ee
K:Dm
d3e| d/e/d/c/ de| f>gfe| dA d2| d3e| d2de| f>gfe| d4::
d3e| d/e/d/c/ de| c>dcB| cB/A/ G4| d3e| d2de| c>dcB| c4:|
